static/assets/images/networks/scroll-mono.svg

<svg width="255" height="256" viewBox="0 0 255 256" fill="none" xmlns="http://www.w3.org/2000/svg">
<path d="M31.7199 98.6834C21.9831 89.236 15.1573 77.0162 15.1573 62.5373V60.997C15.9603 36.2493 35.8354 16.3279 60.0269 15.6091H214.009C218.024 15.8145 221.237 18.6898 221.237 22.8999V156.188C224.749 156.805 226.455 157.318 229.869 158.551C232.58 159.578 236.293 161.734 236.293 161.734V22.8999C236.092 10.2693 226.255 0.10331 213.909 0.10331H59.9265C26.7009 0.616739 0 28.445 0 62.5373C0 82.356 8.8334 99.2995 23.288 111.211C23.7943 111.626 24.275 112.092 24.962 112.453C25.6372 112.808 26.5115 113.06 27.8052 113.06C32.3222 113.06 35.5343 109.363 35.3336 105.358C35.237 102.101 33.9353 100.836 31.9628 98.9196C31.8829 98.842 31.8019 98.7633 31.7199 98.6834Z" fill="black"/>
<path d="M209.994 164.916H89.2377C81.1069 165.019 74.5822 171.694 74.5822 180.011V197.776C74.783 205.992 81.6089 212.974 89.7396 212.974H98.6733V197.776H89.7396V180.423C89.7396 180.423 91.9479 180.423 94.6582 180.423C109.916 180.423 121.159 194.901 121.159 210.407C121.159 224.167 108.912 241.726 88.4346 240.289C70.266 239.057 60.4288 222.524 60.4288 210.407V59.867C60.4288 53.0896 55.0083 47.5445 48.3833 47.5445H36.3377V62.9477H45.2715V210.509C45.1818 215.869 45.7912 220.753 46.9799 225.16C52.4416 245.409 70.1334 255.59 88.4346 255.59L210.095 256C234.587 256 254.462 235.668 254.462 210.509C254.462 197.397 249.036 185.567 240.371 177.245C240.371 177.244 240.37 177.244 240.369 177.243C240.369 177.243 240.369 177.242 240.368 177.242C240.317 177.193 240.266 177.144 240.215 177.095C232.273 169.539 221.644 164.916 209.994 164.916ZM239.303 211.434C238.802 227.556 225.853 240.494 209.993 240.494L125.373 240.186C132.098 232.177 136.213 221.805 136.213 210.509C136.213 192.745 125.875 180.525 125.875 180.525H210.093C226.254 180.525 239.403 193.976 239.403 210.509L239.303 211.434Z" fill="black"/>
<path d="M177.469 65.7222H86.4247V50.3192H177.469C181.584 50.3192 184.998 53.7078 184.998 58.0207C184.998 62.2308 181.685 65.7222 177.469 65.7222Z" fill="black"/>
<path d="M193.53 101.969H86.4247V86.5663H193.429C197.545 86.5663 200.958 89.9549 200.958 94.2679C201.058 98.478 197.645 101.969 193.53 101.969Z" fill="black"/>
<path d="M177.469 138.217H86.4247V122.813H177.469C181.584 122.813 184.998 126.202 184.998 130.515C184.998 134.725 181.685 138.217 177.469 138.217Z" fill="black"/>
<path fill-rule="evenodd" clip-rule="evenodd" d="M236.293 22.7966V161.734C236.293 161.734 232.58 159.578 229.869 158.551C226.455 157.318 224.749 156.805 221.237 156.188V22.8999C221.237 18.6898 218.024 15.8145 214.009 15.6091H60.0269C35.8354 16.3279 15.9603 36.2493 15.1573 60.997V62.5373C15.1573 77.0162 21.9831 89.236 31.7199 98.6834L31.9628 98.9196C33.9353 100.836 35.237 102.101 35.3336 105.358C35.5343 109.363 32.3222 113.06 27.8052 113.06C26.5115 113.06 25.6372 112.808 24.962 112.453C24.9109 112.416 24.8612 112.379 24.812 112.342C24.5604 112.151 24.3188 111.947 23.9389 111.627L23.6895 111.416C17.6668 106.384 11.5436 99.607 7.62885 92.4188C3.01139 83.793 0 73.9351 0 62.434C0 28.3418 26.7009 0.51344 59.9265 0H213.909C226.255 0 236.092 10.1661 236.293 22.7966ZM240.368 177.242C240.369 177.242 240.369 177.243 240.369 177.243C240.37 177.244 240.371 177.244 240.371 177.245C240.319 177.195 240.267 177.145 240.215 177.095C240.266 177.144 240.317 177.193 240.368 177.242ZM86.4247 65.7222H177.469C181.685 65.7222 184.998 62.2308 184.998 58.0207C184.998 53.7078 181.584 50.3192 177.469 50.3192H86.4247V65.7222ZM86.4247 101.969H193.53C197.645 101.969 201.058 98.478 200.958 94.2679C200.958 89.9549 197.545 86.5663 193.429 86.5663H86.4247V101.969Z" fill="black"/>
</svg>

<svg xmlns="http://www.w3.org/2000/svg" fill="none" viewBox="0 0 255 256"><path fill="#000" d="M31.72 98.683c-9.737-9.447-16.563-21.667-16.563-36.146v-1.54c.803-24.748 20.678-44.67 44.87-45.388h153.982c4.015.206 7.228 3.08 7.228 7.29v133.289c3.512.617 5.218 1.13 8.632 2.363 2.711 1.027 6.424 3.183 6.424 3.183V22.9C236.092 10.27 226.255.103 213.909.103H59.927C26.7.617 0 28.445 0 62.537 0 82.356 8.833 99.3 23.288 111.211c.506.415.987.881 1.674 1.242.675.355 1.55.607 2.843.607 4.517 0 7.73-3.697 7.529-7.702-.097-3.257-1.399-4.522-3.371-6.438z"/><path fill="#000" d="M209.994 164.916H89.238c-8.131.103-14.656 6.778-14.656 15.095v17.765c.201 8.216 7.027 15.198 15.158 15.198h8.933v-15.198H89.74v-17.353h4.918c15.258 0 26.501 14.478 26.501 29.984 0 13.76-12.247 31.319-32.724 29.882-18.169-1.232-28.006-17.765-28.006-29.882V59.867c0-6.777-5.42-12.322-12.046-12.322H36.338v15.403h8.934v147.561c-.09 5.36.52 10.244 1.708 14.651 5.462 20.249 23.153 30.43 41.455 30.43l121.66.41c24.492 0 44.367-20.332 44.367-45.491 0-13.112-5.426-24.942-14.091-33.264l-.002-.002-.001-.001-.153-.147c-7.942-7.556-18.571-12.179-30.221-12.179m29.309 46.518c-.501 16.122-13.45 29.06-29.31 29.06l-84.62-.308c6.725-8.009 10.84-18.381 10.84-29.677 0-17.764-10.338-29.984-10.338-29.984h84.218c16.161 0 29.31 13.451 29.31 29.984zM177.469 65.722H86.425V50.32h91.044c4.115 0 7.529 3.389 7.529 7.702 0 4.21-3.313 7.701-7.529 7.701"/><path fill="#000" d="M193.53 101.969H86.425V86.566h107.004c4.116 0 7.529 3.389 7.529 7.702.1 4.21-3.313 7.701-7.428 7.701M177.469 138.217H86.425v-15.404h91.044c4.115 0 7.529 3.389 7.529 7.702 0 4.21-3.313 7.702-7.529 7.702"/><path fill="#000" fill-rule="evenodd" d="M236.293 22.797v138.937s-3.713-2.156-6.424-3.183c-3.414-1.233-5.12-1.746-8.632-2.363V22.9c0-4.21-3.213-7.085-7.228-7.29H60.027c-24.192.718-44.067 20.64-44.87 45.387v1.54c0 14.48 6.826 26.699 16.563 36.146l.243.237c1.972 1.916 3.274 3.181 3.37 6.438.201 4.005-3.01 7.702-7.528 7.702-1.293 0-2.168-.252-2.843-.607l-.15-.111c-.252-.191-.493-.395-.873-.715l-.25-.211c-6.022-5.032-12.145-11.809-16.06-18.997C3.01 83.793 0 73.935 0 62.434 0 28.342 26.7.514 59.927 0h153.982c12.346 0 22.183 10.166 22.384 22.797m4.075 154.445.001.001.002.002-.156-.15zM86.425 65.722h91.044c4.216 0 7.529-3.491 7.529-7.701 0-4.313-3.414-7.702-7.529-7.702H86.425zm0 36.247H193.53c4.115 0 7.528-3.491 7.428-7.701 0-4.313-3.413-7.702-7.529-7.702H86.425z" clip-rule="evenodd"/></svg>
